X: 287
T:Francis John McGovern
R:reel
M:4/4
L:1/8
Z:Tim Shirley
K:G
|BcBA GEDE|~G2 BG cGBG|B3 ~G AGDG|EAAG (3ABA GA:|
(3Bcd ed gded|gded B ~G3|(3Bcd ed ~g2 ed|eaag ~a2 ge|
(3Bcd ed gded|gded BG ~G2|BcBA GEDG|EAAG ~A2 GA|

